X:520
%%etbk:tnset id:250,pos:1,rep:3x,ant:
%%etbk:wsite http://thesession.org/tunes/941
%%etbk:video src:ytube,cde:yAkVrc5LjsI,desc:second tune
%%etbk:skill ?
%%etbk:pldat 2013-10-04T17:22,2013-09-26T15:36
T: The Gatehouse Maid
Z: Piano Box Version by Martin Fleischmann
H: Created 2013-09-10 /  Last Modified 2013-10-04
R: reel
M: 4/4
L: 1/8
K: Ador
"am"!1!A2Bd !5!edBA| "G"!3!GGGA !3!GEDz| "am"!3!A!1!ABd !5!e!1!BBB| "em"!5!g!3!ed!1!B !3!B!2!A!1!G!3!B|
"am"!1!A2!5!gf !3!e!2!d!1!B!2!A| "G"!1!G2!3!GA GEDG| "am"!3!A!1!ABd eBBB| "em"egdB {c}BAAe||
"am"!5!a2!1!e!4!a {b}agef| "G"!3!~g2!1!dg !1!Bgdg| "am"!4!aaea {b}agab| "em"!3!ge!1!d!2!B "am"{c}B!1!AAz|
"am"!4!agab ag!1!ef| "G"!3!~g3a gzge| !1!dega bga!3!g|!5!ge!2!dB {c}BAGB||
